X: 1
T: Mountain Dew
P: Piffero primo b0003
O: safd 118
F: http://ancients.sudburymuster.org/mus/ssp/pdf/mountainF.pdf
Z: 2019 John Chambers <jc:trillian.mit.edu>
M: 2/4
L: 1/16
K: G
d2 |\
efed B2AG | ABAG E2D2 | G2B2 A2G2 | d6 d2 |\
efed B2AG | ABAG E2D2 | G2B2 A2A2 | G6 :|
|: d2 |\
e2d2 | G2Bd | e2d2 G2Bd | e2d2 B2G2 | E6 d2 |\
efed B2AG | ABAG E2D2 | G2B2 A2A2 | G6 :|


